svg/u2652.svg

<svg viewBox="0 0 128 128" xmlns="http://www.w3.org/2000/svg">
  <circle cx="64" cy="64" r="60" fill="#7B1FA2"/>
  <circle cx="60.1" cy="63.1" r="56.1" fill="#AB47BC"/>
  <path d="M24,29.7c4.5-7.1,14.1-13,24.1-14.8c2.5-0.4,5-0.6,7.1,0.2 c1.6,0.6,2.9,2.1,2,3.8c-0.7,1.4-2.6,2-4.1,2.5c-9.3,3-17.9,6.4-23.1,14.3c-2,3-4.9,14.4-8.6,12.3C17.5,45.7,18.3,38.5,24,29.7z" opacity="0.3" fill="#FFFFFF" enable-background="new "/>
  <g>
    <path d="M100,64c-1.4,0-2.7-0.7-3.4-1.9l-7.7-12.9c-0.4-0.7-1.3-0.7-1.7,0l-7.7,12.7 c-0.5,0.8-1.3,1.5-2.2,1.8c-1.8,0.6-3.8-0.2-4.7-1.7l-7.7-12.9c-0.4-0.7-1.3-0.7-1.7,0l-7.7,12.7c-0.5,0.8-1.3,1.5-2.2,1.8 c-1.8,0.6-3.8-0.2-4.7-1.7L40.9,49c-0.4-0.7-1.3-0.7-1.7,0l-7.6,12.7c-1.1,1.8-3.3,2.6-5.2,1.7c-2.2-1-2.9-3.7-1.7-5.7l11.9-19.9 c0.5-0.8,1.3-1.5,2.2-1.8c1.8-0.6,3.8,0.2,4.7,1.7l7.7,12.9c0.4,0.7,1.3,0.7,1.7,0l7.6-12.7c0.5-0.8,1.3-1.5,2.2-1.8 c1.8-0.6,3.8,0.2,4.7,1.7l7.7,12.9c0.4,0.7,1.3,0.7,1.7,0L84.5,38c0.5-0.8,1.3-1.5,2.2-1.8c1.8-0.6,3.8,0.2,4.7,1.7l11.9,19.9 c1.1,1.8,0.7,4.2-1,5.4C101.7,63.8,100.8,64,100,64L100,64z" fill="#FAFAFA"/>
    <path d="M100,92c-1.4,0-2.7-0.7-3.4-1.9l-7.7-12.9c-0.4-0.7-1.3-0.7-1.7,0l-7.7,12.7 c-0.5,0.8-1.3,1.5-2.2,1.8c-1.8,0.6-3.8-0.2-4.7-1.7l-7.7-12.9c-0.4-0.7-1.3-0.7-1.7,0l-7.7,12.7c-0.5,0.8-1.3,1.5-2.2,1.8 c-1.8,0.6-3.8-0.2-4.7-1.7L40.9,77c-0.4-0.7-1.3-0.7-1.7,0l-7.6,12.7c-1.1,1.8-3.3,2.6-5.2,1.7c-2.2-1-2.9-3.7-1.7-5.7l11.9-19.9 c0.5-0.8,1.3-1.5,2.2-1.8c1.8-0.6,3.8,0.2,4.7,1.7l7.7,12.8c0.4,0.7,1.3,0.7,1.7,0L60.5,66c0.5-0.8,1.3-1.5,2.2-1.8 c1.8-0.6,3.8,0.2,4.7,1.7l7.7,12.8c0.4,0.7,1.3,0.7,1.7,0L84.5,66c0.5-0.8,1.3-1.5,2.2-1.8c1.8-0.6,3.8,0.2,4.7,1.7l11.9,19.8 c1.1,1.8,0.7,4.2-1,5.4C101.7,91.8,100.8,92,100,92z" fill="#FAFAFA"/>
  </g>
</svg>

<svg viewBox="0 0 128 128" xmlns="http://www.w3.org/2000/svg">
  <defs/>
  <path d="M124,64 A60 60 0 1 1 4,64 A60 60 0 1 1 124,64 Z" fill="#7B1FA2"/>
  <path d="M116.2,63.1 A56.1 56.1 0 1 1 4,63.1 A56.1 56.1 0 1 1 116.2,63.1 Z" fill="#AB47BC"/>
  <path d="M24,29.7 C28.5,22.6 38.1,16.7 48.1,14.9 C50.6,14.5 53.1,14.3 55.2,15.1 C56.8,15.7 58.1,17.2 57.2,18.9 C56.5,20.3 54.6,20.9 53.1,21.4 C43.8,24.4 35.2,27.8 30,35.7 C28,38.7 25.1,50.1 21.4,48 C17.5,45.7 18.3,38.5 24,29.7 Z" fill="#FFFFFF" opacity="0.3"/>
  <path d="M100,64 C98.6,64 97.3,63.3 96.6,62.1 L88.9,49.2 C88.5,48.5 87.6,48.5 87.2,49.2 L79.5,61.9 C79,62.7 78.2,63.4 77.3,63.7 C75.5,64.3 73.5,63.5 72.6,62 L64.9,49.1 C64.5,48.4 63.6,48.4 63.2,49.1 L55.5,61.8 C55,62.6 54.2,63.3 53.3,63.6 C51.5,64.2 49.5,63.4 48.6,61.9 L40.9,49 C40.5,48.3 39.6,48.3 39.2,49 L31.6,61.7 C30.5,63.5 28.3,64.3 26.4,63.4 C24.2,62.4 23.5,59.7 24.7,57.7 L36.6,37.8 C37.1,37 37.9,36.3 38.8,36 C40.6,35.4 42.6,36.2 43.5,37.7 L51.2,50.6 C51.6,51.3 52.5,51.3 52.9,50.6 L60.5,37.9 C61,37.1 61.8,36.4 62.7,36.1 C64.5,35.5 66.5,36.3 67.4,37.8 L75.1,50.7 C75.5,51.4 76.4,51.4 76.8,50.7 L84.5,38 C85,37.2 85.8,36.5 86.7,36.2 C88.5,35.6 90.5,36.4 91.4,37.9 L103.3,57.8 C104.4,59.6 104,62 102.3,63.2 C101.7,63.8 100.8,64 100,64 L100,64 Z" fill="#FAFAFA"/>
  <path d="M100,92 C98.6,92 97.3,91.3 96.6,90.1 L88.9,77.2 C88.5,76.5 87.6,76.5 87.2,77.2 L79.5,89.9 C79,90.7 78.2,91.4 77.3,91.7 C75.5,92.3 73.5,91.5 72.6,90 L64.9,77.1 C64.5,76.4 63.6,76.4 63.2,77.1 L55.5,89.8 C55,90.6 54.2,91.3 53.3,91.6 C51.5,92.2 49.5,91.4 48.6,89.9 L40.9,77 C40.5,76.3 39.6,76.3 39.2,77 L31.6,89.7 C30.5,91.5 28.3,92.3 26.4,91.4 C24.2,90.4 23.5,87.7 24.7,85.7 L36.6,65.8 C37.1,65 37.9,64.3 38.8,64 C40.6,63.4 42.6,64.2 43.5,65.7 L51.2,78.5 C51.6,79.2 52.5,79.2 52.9,78.5 L60.5,66 C61,65.2 61.8,64.5 62.7,64.2 C64.5,63.6 66.5,64.4 67.4,65.9 L75.1,78.7 C75.5,79.4 76.4,79.4 76.8,78.7 L84.5,66 C85,65.2 85.8,64.5 86.7,64.2 C88.5,63.6 90.5,64.4 91.4,65.9 L103.3,85.7 C104.4,87.5 104,89.9 102.3,91.1 C101.7,91.8 100.8,92 100,92 Z" fill="#FAFAFA"/>
</svg>
